X:33
T:Hambo-polska
R:Hambopolska
O:Asige socken, Halland
N:Från samling lösa notblad nedtecknad av anonym spelman från Asige socken. Bengt Olsons samling
B:[[Notböcker/Småländsk musiktradition]] nr IV-33
M:3/4
L:1/8
Z:Christian Fürst
K:A
|: E2 A2 c2 | e>(d B)>(d c)A | E2 A2 c2 | B(B/2c/2 (3BAB) c2| E2 A2 c2 | e>(d B)>(d c)e | ((3efg) a>(e c)>d |1 B2 A3 E :|2 e2 A3 e |: e>(f d)>(e c)e | e>(f d)>(e c)>e | ((3efg) a>(e c)>(d |1 B)>A ((3AcA E)>e :|2 B2 A4 |

